X: 13
T:Devil's Dream,The. JaW.013
M:C|
L:1/8
Q:1/4=200
S:James Winder Ms, Lancashire, 1835-41
R:Reel
O:England
A:Wyresdale,Lancashire
H:1/8
Z:vmp.Chris Partington, Aug 2004
K:A
eaga eaga|eaga fedc|dfBf dfBf|dfBf dcBA|!
eaga eaga|eaga fedc|dcde fgaf|edcB A2A2:|!
|:ceAe ceAe|ceAe fedc|dfGf dfGf|dfBf dcBA|!
ceAe ceAe|ceAe dcBA|dcde fgaf|edcB A2A2:|]
